X: 16350
T: Gullane, The
R: polka
M: 2/4
K: Dmajor
ud>(B AF)|A2 A2|(B/c/d/B/) (AF)|E2 E2|
ud>(B AF)|(Ad) (f>{gf}e)|(dB) (AF)|D2 D2:|
|:(fd) (fa)|(eg) (fe)|(fd) (fa)|[B2f2] vf>(e|
f)d (fa)|(eg) f>(e|dB) AF|D2 D2:|

